web/packages/design/src/ResourceIcon/assets/microsoftonedrive.svg

<svg width="72" height="72" viewBox="0 0 72 72" fill="none" xmlns="http://www.w3.org/2000/svg">
<path d="M27.4552 25.6794L27.4559 25.6769L42.5708 34.7306L51.5776 30.9404C53.4077 30.1491 55.3812 29.7434 57.3751 29.7454C57.7073 29.7454 58.0357 29.7604 58.3624 29.7822C57.2795 25.5599 54.9936 21.7429 51.7824 18.7952C48.5711 15.8475 44.5728 13.8959 40.2734 13.1777C35.974 12.4595 31.5585 13.0055 27.5635 14.7493C23.5685 16.4932 20.166 19.3599 17.7695 23.0011C17.8465 23.0001 17.9224 22.9953 17.9995 22.9953C21.34 22.9907 24.6153 23.9205 27.4552 25.6794Z" fill="#0364B8"/>
<path d="M27.4566 25.6768L27.4559 25.6792C24.616 23.9203 21.3408 22.9906 18.0003 22.9951C17.9231 22.9951 17.8472 23 17.7703 23.0009C14.5007 23.0414 11.304 23.9721 8.52371 25.6929C5.74338 27.4137 3.48452 29.8596 1.98986 32.7677C0.495213 35.6759 -0.178721 38.9364 0.0404851 42.1988C0.259691 45.4612 1.36375 48.6022 3.23402 51.2843L16.5632 45.6751L22.4885 43.1817L35.6816 37.6298L42.5715 34.7304L27.4566 25.6768Z" fill="#0078D4"/>
<path d="M58.3619 29.7825C58.0352 29.7607 57.7068 29.7456 57.3746 29.7456C55.3807 29.7437 53.4076 30.1509 51.5774 30.9421L42.5703 34.7308L45.1821 36.2952L53.7433 41.4233L57.4786 43.6607L70.2505 51.311C71.411 49.1566 72.0124 46.7454 71.9996 44.2984C71.9869 41.8514 71.3603 39.4467 70.1774 37.3045C68.9944 35.1624 67.2929 33.3513 65.2286 32.0371C63.1644 30.723 60.8034 29.9477 58.3619 29.7825Z" fill="#1490DF"/>
<path d="M57.4802 43.6608L53.7449 41.4234L45.1837 36.2954L42.5719 34.731L35.682 37.6303L22.4889 43.1822L16.5636 45.6756L3.23438 51.2848C4.89077 53.6663 7.09892 55.6115 9.67026 56.9543C12.2416 58.2971 15.0997 58.9977 18.0006 58.9962H57.3762C60.0163 58.997 62.6073 58.2829 64.8743 56.9299C67.1413 55.5768 68.9996 53.6352 70.2521 51.3111L57.4802 43.6608Z" fill="#28A8EA"/>
</svg>

<svg xmlns="http://www.w3.org/2000/svg" width="72" height="72" fill="none" viewBox="0 0 72 72"><path fill="#0364b8" d="M27.455 25.68v-.003l15.116 9.054 9.007-3.79a14.6 14.6 0 0 1 6.784-1.159 22.503 22.503 0 0 0-40.592-6.78c.076-.002.152-.007.23-.007 3.34-.004 6.615.925 9.455 2.684"/><path fill="#0078d4" d="m27.457 25.677-.001.002A17.9 17.9 0 0 0 18 22.995c-.077 0-.153.005-.23.006A17.993 17.993 0 0 0 3.234 51.284l13.33-5.609 5.924-2.493 13.194-5.552 6.89-2.9z"/><path fill="#1490df" d="M58.362 29.783a14.6 14.6 0 0 0-6.785 1.16L42.57 34.73l2.612 1.564 8.561 5.128 3.736 2.238 12.772 7.65a14.626 14.626 0 0 0-11.89-21.528"/><path fill="#28a8ea" d="m57.48 43.66-3.735-2.237-8.561-5.128-2.612-1.564-6.89 2.9-13.193 5.551-5.925 2.494-13.33 5.609a17.98 17.98 0 0 0 14.767 7.711h39.375a14.62 14.62 0 0 0 12.876-7.685z"/></svg>
